!!!!SEGMENT: Ser1002c-Missa_Novem_lectionum-Credo.krn
!!!id: Ser1002c
!!!OTL: Credo
!!!AGN: Mass; Credo
!!!voices: 2–4
!!!COM: Claudin de Sermisy
!!!OPR: Missa Novem lectionum
**kern	**kern	**kern	**kern
*part4	*part3	*part2	*part1
*staff4	*staff3	*staff2	*staff1
*I"Bassus	*I"Tenor	*I"Altus	*I"Superius
*I'B	*I'T	*I'A	*I'S
*clefF4	*clefGv2	*clefGv2	*clefG2
*k[]	*k[]	*k[]	*k[]
*M2/1	*M2/1	*M2/1	*M2/1
*met(C|)	*met(C|)	*met(C|)	*met(C|)
!!section: Patrem
!!!OMD: Patrem
=1	=1	=1	=1
!	!	!	!LO:TX:a:t=Cantus firmus&colon; Credo I
1D	0r	1d	0r
1E	.	1G	.
=2	=2	=2	=2
1D	1d	0r	1a
1r	1G	.	1b
=3	=3	=3	=3
1D	0r	1A	2a
.	.	.	1a
1GG	.	1B	.
.	.	.	[2g
=4	=4	=4	=4
1D	1d	2A	2g]
.	.	1A	2f
2C	2G	.	1g
2BB	[2d	2G	.
=5	=5	=5	=5
1AA	2d]	2F	1a
.	2c	4G	.
.	.	4F	.
2GG	1B	1G	1d
2r	.	.	.
=6	=6	=6	=6
2C	1A	1r	2e
2D	.	.	2f
2E	1G	2B	2g
2E	.	2c	2g
=7	=7	=7	=7
2D	0r	2d	2g
1F	.	2d	2.a
.	.	2c	.
.	.	.	4g
2C	.	[2e	[2g
=8	=8	=8	=8
1D	1r	2e]	2g]
.	.	2d	2f
1C	2.E	2e	[1g
.	.	[2c	.
.	4F	.	.
=9	=9	=9	=9
0r	2G	2c]	1g]
.	2G	2B	.
.	1A	1c	2e
.	.	.	2f
=10	=10	=10	=10
2.E	2.G	1r	2g
.	.	.	2g
4F	4F	.	.
2G	1E	2B	2g
2G	.	2c	2e
=11	=11	=11	=11
1A	1D	2d	1f
.	.	2d	.
2.G	1r	2e	[1g
.	.	[2d	.
4F	.	.	.
=12	=12	=12	=12
1E	1r	2d]	1g]
.	.	2c	.
1D	1A	1d	1f
=13	=13	=13	=13
1G	1B	1e	0r
[1F	2.A	1f	.
.	4B	.	.
=14	=14	=14	=14
2F]	2c	1f	1a
2D	1d	.	.
1G	.	2.d	1b
.	2B-X	.	.
.	.	4e	.
=15	=15	=15	=15
1.F	2.c	2.f	1a
.	4B	4e	.
.	2A	2c	2f
2D	2F	2f	[2a
=16	=16	=16	=16
1E	1G	2e	4a]
.	.	.	4g
.	.	2c	1g
1D	1A	1d	.
.	.	.	2f#i
=17	=17	=17	=17
1GG	1G	1B	0g
2r	2.E	2.c	.
[2C	.	.	.
.	4F	4c	.
=18	=18	=18	=18
2C]	2G	2c	2.e
2C	2G	2c	.
.	.	.	4f
2C	2.G	2e	2g
2C	.	2e	2g
.	4A	.	.
=19	=19	=19	=19
2GG	2B	1d	2g
2GG	2B	.	2g
2C	1c	1e	2g
2C	.	.	2e
=20	=20	=20	=20
2D	1A	2d	1f
2F	.	2c	.
1E	1B	1e	1g
=21	=21	=21	=21
1AA	1A	1c	0a
2r	2r	2r	.
[2D	[2F	[2d	.
=22	=22	=22	=22
2D]	2F]	2d]	1a
2D	2F	2d	.
2GG	2G	2d	1b
2GG	2G	2d	.
=23	=23	=23	=23
2.AA	2E	2c	2a
.	1c	1e	2a
4BB	.	.	.
2AA	.	.	1g
2GG	2B	[2d	.
=24	=24	=24	=24
2.D	2A	2d]	2.f
.	1d	1f	.
4E	.	.	4g
2F	.	.	2a
2G	4c	4e	2b-i
.	4B	4d	.
=25	=25	=25	=25
1C	2.c	2e	2a
.	.	2e	1g
.	4B	.	.
1D	1A	1d	.
.	.	.	2f#i
=26	=26	=26	=26
1r	1G	2r	1g
.	.	2B	.
2E	1r	2c	1r
2F	.	[2d	.
=27	=27	=27	=27
1G	0r	2d]	0r
.	.	2B	.
2E	.	2c	.
2F	.	2d	.
=28	=28	=28	=28
2G	1r	1e	2r
2.A	.	.	1e
.	1A	1c	.
4G	.	.	.
2F	.	.	2f
=29	=29	=29	=29
2E	2B	0r	2g
2C	2c	.	2e
2.D	2A	.	2f
.	2B	.	2g
4C	.	.	.
=30	=30	=30	=30
0AA	2c	1r	2a
.	2.d	.	2f
.	.	1A	2.e
.	8cL	.	.
.	8BJ	.	.
.	2c	.	.
.	.	.	4f
=31	=31	=31	=31
1r	1d	1B	2g
.	.	.	2.f
1D	1r	2A	.
.	.	.	4e
.	.	[2A	[2d
=32	=32	=32	=32
1E	0r	2A]	2d]
.	.	2G	2c#i
2D	.	2F	1d
[2D	.	4D	.
.	.	4E	.
=33	=33	=33	=33
2D]	0r	4F	0r
.	.	4G	.
2C	.	1A	.
2BB	.	.	.
2C	.	2G	.
=34	=34	=34	=34
1AA	2E	1c	0r
.	2F	.	.
1GG	2G	2.B	.
.	2G	.	.
.	.	4c	.
=35	=35	=35	=35
2BB	2G	2d	0r
2C	2G	2e	.
2D	2F	4f	.
.	.	4e	.
2D	[2A	4d	.
.	.	4c	.
=36	=36	=36	=36
2D	4A]	1d	0r
.	4G	.	.
2D	2F	.	.
4C	4E	1e	.
4D	4F	.	.
4E	4G	.	.
4F	4A	.	.
=37	=37	=37	=37
2G	2B	0r	2.e
2A	2c	.	.
.	.	.	4f
4G	4B	.	2g
4F	4A	.	.
4E	4G	.	2g
4D	4F	.	.
=38	=38	=38	=38
2E	1G	2B	2g
2E	.	2c	2g
[1D	[1A	2d	2f
.	.	2d	[2a
=39	=39	=39	=39
1D]	1A]	2d	4a]
.	.	.	4g
.	.	2d	2f
1r	1r	2c	2e
.	.	[2e	[2g
=40	=40	=40	=40
2E	0r	2e]	2g]
2F	.	1d	2f
2G	.	.	1e
2A	.	2c#i	.
=41	=41	=41	=41
2F	2A	1d	1d
2G	2B	.	.
2E	2c	1r	1r
2D	2d	.	.
=42	=42	=42	=42
2.E	2B	0r	0r
.	4c	.	.
4D	4B	.	.
2C	4A	.	.
.	4G	.	.
2BB	[2G	.	.
=43	=43	=43	=43
1AA	2G]	1r	0r
.	2F#i	.	.
2GG	2.G	2.B	.
[2G	.	.	.
.	4A	4c	.
=44	=44	=44	=44
2G]	2B	2d	0r
2C	2c	2e	.
1G	1B	2d	.
.	.	2B	.
=45	=45	=45	=45
1C	1r	2c	2.e
.	.	2c	.
.	.	.	4f
1r	2E	2B	2g
.	2F	2A	2a
=46	=46	=46	=46
0r	2G	2B	2g
.	2A	2c	2e
.	1D	2d	2f
.	.	2B	2d
=47	=47	=47	=47
0r	1A	1c	2e
.	.	.	2f
.	2r	1B	1g
.	2G	.	.
=48	=48	=48	=48
0r	2.c	1r	2.e
.	4c	.	4f
.	2c	2r	2g
.	2c	2e	[2a
=49	=49	=49	=49
2r	2d	2f	2a]
2E	2B	2e	2g#i
2F	[1A	2c	[1a
2D	.	2d	.
=50	=50	=50	=50
2C	1A]	2e	0a]
2D	.	2f	.
2D	1A	1e	.
2C	.	.	.
=51	=51	=51	=51
[0D	2B	[0d	2r
.	2A	.	2a
.	2.F	.	2b
.	.	.	2a
.	4G	.	.
=52	=52	=52	=52
0D]	2A	0d]	2f
.	2B	.	2g
.	1A	.	2g
.	.	.	2f#i
=53	=53	=53	=53
1GG	1G	2B	1g
.	.	2G	.
1r	1r	1A	2e
.	.	.	2f
=54	=54	=54	=54
0r	2E	1r	2g
.	2F	.	2a
.	2G	2B	2g
.	2A	2c	2f
=55	=55	=55	=55
0r	2.G	1d	1g
.	4F	.	.
.	1E	[1e	2g
.	.	.	2g
=56	=56	=56	=56
2E	0r	2e]	2g
2F	.	1d	2a
2G	.	.	2b
2A	.	2c	2cc
=57	=57	=57	=57
2.G	2r	0B	1dd
.	2G	.	.
4F	.	.	.
1E	2G	.	2g
.	2G	.	[2cc
=58	=58	=58	=58
1F	2.A	0r	4cc]
.	.	.	4b
.	.	.	2a
.	4B	.	.
2E	2c	.	2g
2F	2c	.	2a
=59	=59	=59	=59
1G	0B	2r	2d
.	.	2G	2.g
1E	.	2G	.
.	.	.	4f
.	.	2G	2e
=60	=60	=60	=60
2F	0r	2A	2.d
2G	.	2B	.
.	.	.	4e
1A	.	2c	2f
.	.	2c	[2e
=61	=61	=61	=61
0r	1G	1B	4e]
.	.	.	4d
.	.	.	2.g
.	[1d	1G	.
.	.	.	4f
.	.	.	4g
.	.	.	4e
=62	=62	=62	=62
1D	2d]	1.d	1f
.	2c	.	.
[1G	2B	.	1g
.	2A	2c	.
=63	=63	=63	=63
2G]	1G	2B	0r
2F	.	2A	.
2E	1r	2G	.
2D	.	[2A	.
=64	=64	=64	=64
2C	1r	2A]	1r
2BB	.	1G	.
2C	2r	.	1a
2D	2A	2F#i	.
=65	=65	=65	=65
2GG	1.d	1G	1.b
2.G	.	.	.
.	.	1r	.
4E	.	.	.
2F	2c	.	2a
=66	=66	=66	=66
2G	2B	2r	2g
2D	2A	2d	1a
2G	2B	2d	.
2C	2c	2e	[2g
=67	=67	=67	=67
1D	1A	2.d	2g]
.	.	.	2f#i
.	.	4c	.
2r	1G	[1B	[1g
2GG	.	.	.
=68	=68	=68	=68
2GG	2r	1B]	1g]
2GG	2G	.	.
2.C	2G	2c	1r
.	2A	2c	.
4D	.	.	.
=69	=69	=69	=69
1E	1.G	2B	2r
.	.	2c	2g
1r	.	1d	2g
.	2F	.	2a
=70	=70	=70	=70
2r	2E	2e	2.g
2C	2c	2E	.
.	.	.	4f
2C	2c	2G	1e
2C	2c'	2A	.
=71	=71	=71	=71
2D	2A	1F	2f
2BB-X	2B	.	2d
2C	2G	1E	2.e
2AA	2A	.	.
.	.	.	4f
=72	=72	=72	=72
1E	2B	2r	1g
.	2.c	1e	.
1AA	.	.	[1a
.	4B	.	.
.	4A	[2f	.
.	4G	.	.
=73	=73	=73	=73
1D	1A	4f]	1a]
.	.	4e	.
.	.	1d	.
1E	1G	.	1r
.	.	2c#i	.
=74	=74	=74	=74
1D	1A	[0d	0r
4GG	1B	.	.
4AA	.	.	.
4BB	.	.	.
4C	.	.	.
=75	=75	=75	=75
4D	1A	1d]	0r
4E	.	.	.
4F	.	.	.
4G	.	.	.
2A	2F	2.f	.
[2F	[2A	.	.
.	.	4e	.
=76	=76	=76	=76
2F]	2A]	2d	0r
2E	1G	1c	.
1D	.	.	.
.	2F	2B	.
=77	=77	=77	=77
0C	0G	0c	0r
=78	=78	=78	=78
0D	0F	1A	0a
.	.	[1d	.
=79	=79	=79	=79
0GG	0G	1d]	0b
.	.	1d	.
=80	=80	=80	=80
0D	0A	0f	0a
=81	=81	=81	=81
0D	1A	1d	1f
.	1F	[1d	[1a
=82	=82	=82	=82
0E	0G	2d]	1a]
.	.	4c#i	.
.	.	4B	.
.	.	1c#i	[1g
=83	=83	=83	=83
0D	0A	[0dl	1g]
.	.	.	1f#i
=84	=84	=84	=84
0GG	0G	0d]	0g
=85||	=85||	=85||	=85||
*M2/1	*M2/1	*M2/1	*M2/1
*met(C|)	*met(C|)	*met(C|)	*met(C|)
!!section: Crucifixus
!!!OMD: Crucifixus
0r	0r	0r	0g
=86	=86	=86	=86
0r	0r	0r	1a
.	.	.	[1g
=87	=87	=87	=87
0r	0r	0c	1g]
.	.	.	1e
=88	=88	=88	=88
0r	0r	1d	2f
.	.	.	2f
.	.	[1c	2.e
.	.	.	4f
=89	=89	=89	=89
0r	0r	1c]	2g
.	.	.	2.a
.	.	1A	.
.	.	.	4b
.	.	.	[2cc
=90	=90	=90	=90
0r	0r	2c	2cc]
.	.	2c	4b
.	.	.	4a
.	.	2B	2g
.	.	2c	[2a
=91	=91	=91	=91
0r	0r	2d	2a]
.	.	2e	2g
.	.	2c	[1a
.	.	[2d	.
=92	=92	=92	=92
0r	0r	2d]	1a]
.	.	4c	.
.	.	4B	.
.	.	2c	1a
.	.	2d	.
=93	=93	=93	=93
0r	0r	1G	1b
.	.	1d	2a
.	.	.	2f
=94	=94	=94	=94
0r	0r	1e	2.g
.	.	.	4a
.	.	1d	2b
.	.	.	[2a
=95	=95	=95	=95
0r	0r	2B	2a]
.	.	2c	1g
.	.	2.d	.
.	.	.	2f#i
.	.	4c	.
=96	=96	=96	=96
0r	0r	4B	0g
.	.	4A	.
.	.	2.c	.
.	.	4B	.
.	.	8AL	.
.	.	8G	.
.	.	8F	.
.	.	8EJ	.
=97	=97	=97	=97
0r	0r	2F	1r
.	.	1G	.
.	.	.	1a
.	.	2F#i	.
=98	=98	=98	=98
0r	0r	1G	1b
.	.	1r	2a
.	.	.	4d
.	.	.	4e
=99	=99	=99	=99
0r	0r	1d	4f
.	.	.	4g
.	.	.	4a
.	.	.	4b
.	.	1e	2cc
.	.	.	[2b
=100	=100	=100	=100
0r	0r	1d	2b]
.	.	.	1a
.	.	1r	.
.	.	.	[2cc
=101	=101	=101	=101
0r	0r	1A	4cc]
.	.	.	4b
.	.	.	4a
.	.	.	4g
.	.	1B-X	2f
.	.	.	[2g
=102	=102	=102	=102
0r	0r	1A	2g]
.	.	.	2f#i
.	.	2r	[1g
.	.	[2c	.
=103	=103	=103	=103
0r	0r	2c]	1g]
.	.	2c	.
.	.	2B	2r
.	.	[2A	[2cc
=104	=104	=104	=104
0r	0r	4A]	2cc]
.	.	4B	.
.	.	4c	2cc
.	.	4d	.
.	.	2e	2b
.	.	[2f	[2a
=105	=105	=105	=105
0r	0r	2f]	4a]
.	.	.	4b
.	.	2e	4cc
.	.	.	4a
.	.	2d	2b
.	.	[2c	[2a
=106	=106	=106	=106
0r	0r	4c]	2a]
.	.	4B	.
.	.	2G	1g
.	.	1A	.
.	.	.	2f#i
=107	=107	=107	=107
0r	0r	0G	0g
=108||	=108||	=108||	=108||
*M2/1	*M2/1	*M2/1	*M2/1
*met(C|)	*met(C|)	*met(C|)	*met(C|)
!!section: Et resurrexit
!!!OMD: Et resurrexit
0r	0d	0r	0r
=109	=109	=109	=109
0r	1d	0r	0r
.	1e	.	.
=110	=110	=110	=110
0G	0d	0r	0r
=111	=111	=111	=111
1G	1B	0r	0r
1A	1c	.	.
=112	=112	=112	=112
0G	2.B	0r	0r
.	4c	.	.
.	2d	.	.
.	[2e	.	.
=113	=113	=113	=113
1E	4e]	0r	0r
.	4d	.	.
.	4c	.	.
.	4B	.	.
1F	2A	.	.
.	[2c	.	.
=114	=114	=114	=114
2E	2c]	0r	0r
2F	4B	.	.
.	4A	.	.
1G	2B	.	.
.	[2d	.	.
=115	=115	=115	=115
1A	2d]	0r	0r
.	4c	.	.
.	4B	.	.
1AA	1c	.	.
=116	=116	=116	=116
1BB	1d	0r	0r
2.AA	1r	.	.
4BB	.	.	.
=117	=117	=117	=117
2C	1A	0r	0r
2.D	.	.	.
.	1B	.	.
4C	.	.	.
4D	.	.	.
4E	.	.	.
=118	=118	=118	=118
2F	1A	0r	0r
2D	.	.	.
2.F	1A	.	.
4E	.	.	.
=119	=119	=119	=119
4D	2.F	0r	0r
4C	.	.	.
1D	.	.	.
.	4G	.	.
.	2A	.	.
2GG	2B-i	.	.
=120	=120	=120	=120
2.C	2A	0r	0r
.	1G	.	.
4BB	.	.	.
1AA	.	.	.
.	2F#i	.	.
=121	=121	=121	=121
0GG	1G	0r	0r
.	1r	.	.
=122	=122	=122	=122
1r	2.E	0r	0r
.	4F	.	.
2E	2G	.	.
2F	2A	.	.
=123	=123	=123	=123
2G	2B	0r	0r
2E	2c	.	.
2F	1d	.	.
2G	.	.	.
=124	=124	=124	=124
1A	1r	0r	0r
1r	1d	.	.
=125	=125	=125	=125
1A	1e	0r	0r
1B	1d	.	.
=126	=126	=126	=126
1A	2r	0r	0r
.	2D	.	.
2r	2.F	.	.
2D	.	.	.
.	4G	.	.
=127	=127	=127	=127
2F	2A	0r	0r
2G	2B	.	.
2A	2c	.	.
[2B	2d	.	.
=128	=128	=128	=128
4B]	1G	0r	0r
4A	.	.	.
1G	.	.	.
.	1A	.	.
2F#i	.	.	.
=129	=129	=129	=129
0G	0G	0r	0r
=130||	=130||	=130||	=130||
*M2/1	*M2/1	*M2/1	*M2/1
*met(C|)	*met(C|)	*met(C|)	*met(C|)
!!section: Et iterum
!!!OMD: Et iterum
0r	1r	1c	0r
.	[1E	2c	.
.	.	2c	.
=131	=131	=131	=131
0r	1E]	2B	0r
.	.	2G	.
.	1F	2c	.
.	.	2d	.
=132	=132	=132	=132
1C	1G	1e	0r
2C	1G	1e	.
2C	.	.	.
=133	=133	=133	=133
2BB	1G	2d	0r
2GG	.	2d	.
2C	2G	2e	.
2D	2G	4d	.
.	.	4c	.
=134	=134	=134	=134
2E	2G	2B	0r
2AA	2A	1e	.
2C	2G	.	.
2D	2F	[2d	.
=135	=135	=135	=135
1AA	1E	2d]	0r
.	.	2c	.
2r	1F	2A	.
[2A	.	[2c	.
=136	=136	=136	=136
2A]	1E	4c]	0r
.	.	4B	.
1G	.	2G	.
.	1D	1A	.
2F	.	.	.
=137	=137	=137	=137
2.E	1G	2B	0r
.	.	2.c	.
4D	.	.	.
2C	1A	.	.
.	.	4B	.
2D	.	[2A	.
=138	=138	=138	=138
1BB	1D	2A]	0r
.	.	2G#i	.
[1AA	1r	[1A	.
=139	=139	=139	=139
0AA_	1E	1A]	0r
.	1F	1r	.
=140	=140	=140	=140
1AA]	2E	1e	0r
.	2C	.	.
1r	2D	1f	.
.	2F	.	.
=141	=141	=141	=141
0r	2G	2e	0r
.	2A	2c	.
.	2F	2d	.
.	[2G	[2e	.
=142	=142	=142	=142
1r	4G]	4e]	0r
.	4F	4d	.
.	2D	1d	.
1AA	1E	.	.
.	.	2c#i	.
=143	=143	=143	=143
1BB-i	4D	1d	0r
.	4E	.	.
.	4F	.	.
.	4G	.	.
2AA	4A	1r	.
.	4B	.	.
2FF	4c	.	.
.	4A	.	.
=144	=144	=144	=144
4GG	4B	0r	0r
4AA	4c	.	.
4BB	4d	.	.
4C	4c	.	.
2D	4B	.	.
.	4A	.	.
2AA	4c	.	.
.	4A	.	.
=145	=145	=145	=145
2C	4A	0r	0r
.	4G	.	.
2BB	1G	.	.
1AA	.	.	.
.	2F#i	.	.
=146	=146	=146	=146
0GG	[0G	2.B	0r
.	.	4c	.
.	.	2d	.
.	.	2d	.
=147	=147	=147	=147
2.E	1G]	2B	0r
.	.	1e	.
4F	.	.	.
2G	2.B	.	.
[2G	.	2d	.
.	4c	.	.
=148	=148	=148	=148
2G]	2d	4B	0r
.	.	4c	.
2G	2d	4d	.
.	.	4e	.
2F	2d	1f	.
[2A	[2c	.	.
=149	=149	=149	=149
2A]	2c]	1e	0r
1G	2B	.	.
.	1A	[1d	.
2F#i	.	.	.
=150	=150	=150	=150
2G	2.G	1d]	0r
2.GG	.	.	.
.	4A	.	.
.	4B	2.d	.
4AA	4c	.	.
4BB	2d	.	.
4C	.	4e	.
=151	=151	=151	=151
2D	2A	2f	0r
2AA	1c	1e	.
2.C	.	.	.
.	4B	4d	.
4D	4A	4c	.
=152	=152	=152	=152
4E	2.G	2.B	0r
4F	.	.	.
2G	.	.	.
.	4A	4c	.
2GG	2B	2d	.
[2AA	[2A	[2c	.
=153	=153	=153	=153
2AA]	2A]	2c]	0r
2BB	1G	2B	.
2C	.	1A	.
2D	2F#i	.	.
=154	=154	=154	=154
2BB	[0Gl	1G	0r
1C	.	.	.
.	.	1c	.
4BB	.	.	.
4AA	.	.	.
=155	=155	=155	=155
0GG	0G]	0B	0r
=156||	=156||	=156||	=156||
*M2/1	*M2/1	*M2/1	*M2/1
*met(C|)	*met(C|)	*met(C|)	*met(C|)
!!section: Et in Spiritum
!!!OMD: Et in Spiritum
1.C	0r	1r	1r
.	.	[1G	2.e
2C	.	.	.
.	.	.	4f
=157	=157	=157	=157
2C	2.E	2G]	2g
2C	.	2G	2g
.	4F	.	.
1C	2G	2c	2g
.	2G	2c	2e
=158	=158	=158	=158
1GG	2G	2B	2d
.	2G	2d	2g
2D	1A	2d	2f
2AA	.	[2c	[2e
=159	=159	=159	=159
2C	2G	4c]	2e]
.	.	4B	.
2D	2F	4A	1d
.	.	4G	.
1AA	1E	1A	.
.	.	.	2c#i
=160	=160	=160	=160
0D	1D	1A	0d
.	2.A	[1F	.
.	4B	.	.
=161	=161	=161	=161
0r	2c	1F]	1a
.	2d	.	.
.	2G	1r	1b
.	[2d	.	.
=162	=162	=162	=162
2.D	2d]	0r	2a
.	2d	.	2f
4E	.	.	.
2F	2c	.	2a
2G	2B	.	[2g
=163	=163	=163	=163
2D	1A	0r	2g]
1F	.	.	2f#i
.	1G	.	1g
2E	.	.	.
=164	=164	=164	=164
1D	1r	2.G	0r
.	.	4B	.
[1C	2.E	2c	.
.	.	2c	.
.	4F	.	.
=165	=165	=165	=165
1C]	2G	2c	2.e
.	2A	2c	.
.	.	.	4f
[1GG	2.B	1d	2g
.	.	.	2g
.	4c	.	.
=166	=166	=166	=166
1GG]	2d	2.B	2g
.	1D	.	2g
.	.	4c	.
1r	.	2d	2f
.	[2F	[2c	[2a
=167	=167	=167	=167
0r	2F]	2c]	4a]
.	.	.	4g
.	2G	2B	1g
.	1D	4A	.
.	.	4G	.
.	.	[2d	2f
=168	=168	=168	=168
0r	2.E	2d]	0g
.	.	1c	.
.	4F	.	.
.	2G	.	.
.	2G	2B	.
=169	=169	=169	=169
2.AA	1.A	0c	0r
4BB	.	.	.
2C	.	.	.
2C	2G	.	.
=170	=170	=170	=170
2D	2F	0r	0r
1C	2.E	.	.
.	4F	.	.
2BB	4G	.	.
.	4E	.	.
=171	=171	=171	=171
2AA	2F	1r	0r
2GG	1G	.	.
1D	.	2.A	.
.	2F#i	.	.
.	.	4B	.
=172	=172	=172	=172
1C	0G	2c	2.e
.	.	2c	.
.	.	.	4f
1r	.	1d	1g
=173	=173	=173	=173
1r	1r	2c	1g
.	.	2B	.
2r	2r	1A	1a
2D	2d	.	.
=174	=174	=174	=174
2E	2B	0r	2g
2F	2A	.	2f
2G	2B	.	1e
2A	2c	.	.
=175	=175	=175	=175
1D	1d	2r	2f
.	.	2d	2f
1r	1A	2c	2e
.	.	2A	2f
=176	=176	=176	=176
1r	2r	2B	2g
.	2A	2c	1a
2r	1B	1d	.
2G	.	.	2g#i
=177	=177	=177	=177
2F	2A	2r	1a
2D	2F	2d	.
2E	2G	2c	1r
2F	[2A	2c	.
=178	=178	=178	=178
2G	4A]	2B	0r
.	4G	.	.
2GG	1G	2G	.
2D	.	1A	.
2D	2F#i	.	.
=179	=179	=179	=179
2BB	2G	1G	1r
2BB	1G	.	.
1C	.	1r	2.e
.	2G	.	.
.	.	.	4f
=180	=180	=180	=180
1GG	2G	2.B	2g
.	2G	.	2g
.	.	4c	.
1r	1D	2d	2f
.	.	2d	[2a
=181	=181	=181	=181
2.E	0r	2c	4a]
.	.	.	4g
.	.	1e	2.g
4F	.	.	.
2G	.	.	.
.	.	.	4a
2G	.	[2d	4b
.	.	.	4cc
=182	=182	=182	=182
2F	0r	2d]	2a
1A	.	2c	1cc
.	.	1d	.
[2G	.	.	2b
=183	=183	=183	=183
2G]	0r	2e	2g
2F	.	2f	1dd
1G	.	1d	.
.	.	.	2b
=184	=184	=184	=184
2r	1r	1c	1cc
1C	.	.	.
.	2.E	2.c	2.g
2C	.	.	.
.	4F	4c	4f
=185	=185	=185	=185
2C	2G	2c	2e
2GG	2G	2B	2d
2C	2G	2c	2e
2AA	2A	2c	2f
=186	=186	=186	=186
2C	2G	2c	2e
2D	2F	2A	1d
1AA	1E	1A	.
.	.	.	2c#i
=187	=187	=187	=187
1A	[0D	1F	1d
1B	.	[1D	1r
=188	=188	=188	=188
2A	1D]	1D]	1a
2A	.	.	.
2G	1r	[1d	1b
2G	.	.	.
=189	=189	=189	=189
[0D	1r	0d_	2a
.	.	.	2a
.	1A	.	2.a
.	.	.	4g
=190	=190	=190	=190
0D]	1B	1d]	2f
.	.	.	4d
.	.	.	4e
.	2A	1d	4f
.	.	.	4g
.	2A	.	4a
.	.	.	4b
=191	=191	=191	=191
0r	2A	1e	2cc
.	2G	.	4b
.	.	.	4g
.	2F	2d	2a
.	2G	2d	[2g
=192	=192	=192	=192
1D	2A	2.d	2g]
.	2A	.	2f
.	.	4c	.
1E	1G	2B	4e
.	.	.	4d
.	.	2c	[2g
=193	=193	=193	=193
2D	0r	2B	2g]
2D	.	4A	4f
.	.	4G	4e
2.D	.	2A	1f
.	.	2A	.
4C	.	.	.
=194	=194	=194	=194
2BB	1r	1G	1g
1C	.	.	.
.	2.E	1r	2r
2AA	.	.	[2a
.	4F	.	.
=195	=195	=195	=195
0E	2G	1r	4a]
.	.	.	4g
.	2G	.	1g
.	2G	2.B	.
.	2G	.	4f#i
.	.	4c	4e
=196	=196	=196	=196
1D	1A	2d	1f#i
.	.	2d	.
1r	1G	2d	[1g
.	.	2d	.
=197	=197	=197	=197
2.E	4E	1e	0g]
.	4F	.	.
.	4G	.	.
4F	4A	.	.
2G	2.B	1d	.
2G	.	.	.
.	4c	.	.
=198	=198	=198	=198
2G	4d	1B	1r
.	4e	.	.
2G	1d	.	.
1A	.	2c	2.e
.	[2c	2c	.
.	.	.	4f
=199	=199	=199	=199
1G	4c]	2d	2g
.	8BL	.	.
.	8AJ	.	.
.	2B	2d	2g
1E	2r	1e	2g
.	2c	.	2g
=200	=200	=200	=200
2F	2c	1A	1a
2F	2d	.	.
2G	2d	1B	1g
2G	[2e	.	.
=201	=201	=201	=201
1A	2e]	1c	1e
.	1A	.	.
2D	.	2A	2f
2D	2F	[2d	2f
=202	=202	=202	=202
2E	1G	2d]	2e
2E	.	2c	2e
1D	2.A	1d	2.f
.	4B	.	4g
=203	=203	=203	=203
0r	2c	0r	1a
.	1d	.	.
.	.	.	2f
.	2c	.	[2a
=204	=204	=204	=204
1G	1d	0r	4a]
.	.	.	4g
.	.	.	1g
1A	2r	.	.
.	2c	.	2f#i
=205	=205	=205	=205
1G	1d	2r	0g
.	.	2d	.
1E	1c	1e	.
=206	=206	=206	=206
1F	1A	1d	1r
2G	1r	1B	2r
[2E	.	.	[2g
=207	=207	=207	=207
2E]	0r	2c	2g]
2F	.	2c	2a
2G	.	2B	2g
2A	.	2c	2e
=208	=208	=208	=208
1D	1r	1d	2f
.	.	.	2f
1A	2c	2e	2.e
.	2c	2c	.
.	.	.	4f
=209	=209	=209	=209
2G	2B	2d	2g
2.F	2c	2.A	1a
.	2d	.	.
4E	.	4B	.
2C	2e	2c	2g
=210	=210	=210	=210
2D	2d	1A	2f
1F	1c	.	1a
.	.	2r	.
2G	2B	2d	[2g
=211	=211	=211	=211
1D	1A	1d	2g]
.	.	.	2f#i
[1GG	2G	2B	1g
.	2d	2G	.
=212	=212	=212	=212
1GG]	1d	2.B	2r
.	.	.	2g
.	.	4c	.
1r	2B	2d	1g
.	[2c	[2e	.
=213	=213	=213	=213
1C	4c]	4e]	1e
.	4B	4d	.
.	4A	4c	.
.	4G	4B	.
1D	2.F	2.A	1f
.	4G	4c	.
=214	=214	=214	=214
0AA	0A	2c	0e
.	.	1d	.
.	.	2c#i	.
=215	=215	=215	=215
0BB	2r	2d	1d
.	2.F	4D	.
.	.	4E	.
.	.	4F	1d
.	4E	4G	.
.	[2D	[2G	.
=216	=216	=216	=216
1AA	2D]	2G]	1a
.	2C	2F	.
1GG	1D	2G	[1b
.	.	[2G	.
=217	=217	=217	=217
1GG	2r	2G]	1b]
.	1D	2.d	.
2.D	.	.	1a
.	.	4e	.
.	[2A	2f	.
4E	.	.	.
=218	=218	=218	=218
2F	2A]	2c	1a
2D	2F	2.d	.
2.F	2.A	.	2r
.	.	4B	.
.	.	4c	[2a
4E	4B	4d	.
=219	=219	=219	=219
1C	1c	1e	2a]
.	.	.	1g
1D	1A	1d	.
.	.	.	2f
=220	=220	=220	=220
1E	2.G	2B	1g
.	.	1c	.
.	4F	.	.
2AA	2E	.	2.a
[2D	2F	[2A	.
.	.	.	4g
=221	=221	=221	=221
2D]	2D	4A]	2f
.	.	4B	.
2C	2E	2c	2e
2.D	2F	2G	2d
.	[2A	2d	[2f
4E	.	.	.
=222	=222	=222	=222
2F	2A]	2.c	2f]
2C	2G	.	1e
.	.	4B	.
1D	1F	1A	.
.	.	.	2d
=223	=223	=223	=223
2r	0E	2B	[0el
1AA	.	1c	.
2GG	.	2B	.
=224	=224	=224	=224
2.AA	2r	1A	0e_
.	1c	.	.
4BB	.	.	.
2C	.	1G	.
2GG	2B	.	.
=225	=225	=225	=225
0AA	0A	0c	0e_
=226	=226	=226	=226
0EEl	0Gl	0Bl	0e]
==	==	==	==
*-	*-	*-	*-
!!!system-decoration: [*]
!!!RDF**kern: i = editorial accidental
!!!RDF**kern: l = terminal long
!!!ENC: Max Blistain
!!!END: 2025/11/9
!!!EED: Benjamin Ory
!!!EEV: 2025/11/10
!!!YEC: Copyright 2025 Benjamin Ory, All Rights Reserved
!!!ONB: Translated from MusicXML on 2025/11/10